humanity-icon-theme/Humanity-Dark/apps/24/nm-stage02-connecting11.svg

<?xml version="1.0" encoding="UTF-8" standalone="no"?>
<!-- Created with Inkscape (http://www.inkscape.org/) -->

<svg
   xmlns:svg="http://www.w3.org/2000/svg"
   xmlns="http://www.w3.org/2000/svg"
   version="1.0"
   width="24"
   height="24"
   id="svg3315">
  <defs
     id="defs3317" />
  <path
     d="M 9.6737195,9.6612435 6.1378656,6.1253895"
     id="path3279"
     style="fill:none;stroke:#878787;stroke-width:1px;stroke-linecap:round;stroke-linejoin:miter;stroke-opacity:1" />
  <path
     d="M 18.874611,18.862134 15.337156,15.324679"
     id="path3281"
     style="fill:none;stroke:#878787;stroke-width:1px;stroke-linecap:round;stroke-linejoin:miter;stroke-opacity:1" />
  <path
     d="M 9.037126,10.49087 4.7066067,7.9906427"
     id="path2629"
     style="opacity:0.75;fill:none;stroke:#878787;stroke-width:1px;stroke-linecap:round;stroke-linejoin:miter;stroke-opacity:1" />
  <path
     d="M 20.30587,16.996881 15.97339,14.495523"
     id="path2631"
     style="opacity:0.75;fill:none;stroke:#878787;stroke-width:1px;stroke-linecap:round;stroke-linejoin:miter;stroke-opacity:1" />
  <path
     d="M 8.6369461,11.456988 3.8068799,10.162776"
     id="path3403"
     style="opacity:0.6;fill:none;stroke:#878787;stroke-width:1px;stroke-linecap:round;stroke-linejoin:miter;stroke-opacity:1" />
  <path
     d="M 21.205597,14.824748 16.373343,13.529951"
     id="path3405"
     style="opacity:0.6;fill:none;stroke:#878787;stroke-width:1px;stroke-linecap:round;stroke-linejoin:miter;stroke-opacity:1" />
  <path
     d="m 8.500452,12.493763 -5.0004525,-2e-6"
     id="path3407"
     style="opacity:0.5;fill:none;stroke:#878787;stroke-width:1px;stroke-linecap:round;stroke-linejoin:miter;stroke-opacity:1" />
  <path
     d="m 21.512477,12.493762 -5.002717,0"
     id="path3409"
     style="opacity:0.5;fill:none;stroke:#878787;stroke-width:1px;stroke-linecap:round;stroke-linejoin:miter;stroke-opacity:1" />
  <path
     d="M 8.6369457,13.530537 3.8068801,14.824748"
     id="path3415"
     style="opacity:0.4;fill:none;stroke:#878787;stroke-width:1px;stroke-linecap:round;stroke-linejoin:miter;stroke-opacity:1" />
  <path
     d="m 21.205597,10.162776 -4.832254,1.294798"
     id="path3417"
     style="opacity:0.4;fill:none;stroke:#878787;stroke-width:1px;stroke-linecap:round;stroke-linejoin:miter;stroke-opacity:1" />
  <path
     d="M 9.0371264,14.496656 4.7066058,16.996882"
     id="path3419"
     style="opacity:0.3;fill:none;stroke:#878787;stroke-width:1px;stroke-linecap:round;stroke-linejoin:miter;stroke-opacity:1" />
  <path
     d="M 20.30587,7.9906429 15.97339,10.492002"
     id="path3421"
     style="opacity:0.3;fill:none;stroke:#878787;stroke-width:1px;stroke-linecap:round;stroke-linejoin:miter;stroke-opacity:1" />
  <path
     d="M 9.6737201,15.326281 6.1378656,18.862134"
     id="path3423"
     style="opacity:0.2;fill:none;stroke:#878787;stroke-width:1px;stroke-linecap:round;stroke-linejoin:miter;stroke-opacity:1" />
  <path
     d="M 18.87461,6.1253887 15.337155,9.6628444"
     id="path3425"
     style="opacity:0.2;fill:none;stroke:#878787;stroke-width:1px;stroke-linecap:round;stroke-linejoin:miter;stroke-opacity:1" />
  <path
     d="M 10.503346,15.962875 8.0031198,20.293392"
     id="path3427"
     style="opacity:0.15;fill:none;stroke:#878787;stroke-width:1px;stroke-linecap:round;stroke-linejoin:miter;stroke-opacity:1" />
  <path
     d="M 17.009358,4.6941306 14.507999,9.0266105"
     id="path3429"
     style="opacity:0.15;fill:none;stroke:#878787;stroke-width:1px;stroke-linecap:round;stroke-linejoin:miter;stroke-opacity:1" />
  <path
     d="m 11.469465,16.363054 -1.294212,4.830065"
     id="path3431"
     style="opacity:0.1;fill:none;stroke:#878787;stroke-width:1px;stroke-linecap:round;stroke-linejoin:miter;stroke-opacity:1" />
  <path
     d="M 14.837224,3.7944028 13.542425,8.6266571"
     id="path3433"
     style="opacity:0.1;fill:none;stroke:#878787;stroke-width:1px;stroke-linecap:round;stroke-linejoin:miter;stroke-opacity:1" />
  <path
     d="m 13.543013,16.363054 1.294212,4.830066"
     id="path3435"
     style="opacity:0.05;fill:none;stroke:#878787;stroke-width:1px;stroke-linecap:round;stroke-linejoin:miter;stroke-opacity:1" />
  <path
     d="M 10.175251,3.7944028 11.47005,8.6266576"
     id="path3437"
     style="opacity:0.05;fill:none;stroke:#878787;stroke-width:1px;stroke-linecap:round;stroke-linejoin:miter;stroke-opacity:1" />
</svg>

<?xml version="1.0" encoding="UTF-8" standalone="no"?>
<!-- Created with Inkscape (http://www.inkscape.org/) -->
<svg id="svg3315" xmlns="http://www.w3.org/2000/svg" height="24" width="24" version="1.0">
 <path id="path3279" style="stroke:#878787;stroke-linecap:round;stroke-width:1px;fill:none" d="m9.6737 9.6612-3.5358-3.5358"/>
 <path id="path3281" style="stroke:#878787;stroke-linecap:round;stroke-width:1px;fill:none" d="m18.875 18.862-3.538-3.537"/>
 <path id="path2629" style="opacity:.75;stroke:#878787;stroke-linecap:round;stroke-width:1px;fill:none" d="m9.0371 10.491-4.3305-2.5004"/>
 <path id="path2631" style="opacity:.75;stroke:#878787;stroke-linecap:round;stroke-width:1px;fill:none" d="m20.306 16.997-4.333-2.501"/>
 <path id="path3403" style="opacity:.6;stroke:#878787;stroke-linecap:round;stroke-width:1px;fill:none" d="m8.6369 11.457-4.83-1.294"/>
 <path id="path3405" style="opacity:.6;stroke:#878787;stroke-linecap:round;stroke-width:1px;fill:none" d="m21.206 14.825-4.833-1.295"/>
 <path id="path3407" style="opacity:.5;stroke:#878787;stroke-linecap:round;stroke-width:1px;fill:none" d="m8.5005 12.494-5.0005-0.000002"/>
 <path id="path3409" style="opacity:.5;stroke:#878787;stroke-linecap:round;stroke-width:1px;fill:none" d="m21.512 12.494h-5.0027"/>
 <path id="path3415" style="opacity:.4;stroke:#878787;stroke-linecap:round;stroke-width:1px;fill:none" d="m8.6369 13.531-4.83 1.294"/>
 <path id="path3417" style="opacity:.4;stroke:#878787;stroke-linecap:round;stroke-width:1px;fill:none" d="m21.206 10.163-4.8323 1.2948"/>
 <path id="path3419" style="opacity:.3;stroke:#878787;stroke-linecap:round;stroke-width:1px;fill:none" d="m9.0371 14.497-4.3305 2.5"/>
 <path id="path3421" style="opacity:.3;stroke:#878787;stroke-linecap:round;stroke-width:1px;fill:none" d="m20.306 7.9906-4.333 2.5014"/>
 <path id="path3423" style="opacity:.2;stroke:#878787;stroke-linecap:round;stroke-width:1px;fill:none" d="m9.6737 15.326-3.5358 3.536"/>
 <path id="path3425" style="opacity:.2;stroke:#878787;stroke-linecap:round;stroke-width:1px;fill:none" d="m18.875 6.1254-3.538 3.5374"/>
 <path id="path3427" style="opacity:.15;stroke:#878787;stroke-linecap:round;stroke-width:1px;fill:none" d="m10.503 15.963-2.4999 4.33"/>
 <path id="path3429" style="opacity:.15;stroke:#878787;stroke-linecap:round;stroke-width:1px;fill:none" d="m17.009 4.6941-2.501 4.3325"/>
 <path id="path3431" style="opacity:.1;stroke:#878787;stroke-linecap:round;stroke-width:1px;fill:none" d="m11.469 16.363-1.2942 4.8301"/>
 <path id="path3433" style="opacity:.1;stroke:#878787;stroke-linecap:round;stroke-width:1px;fill:none" d="m14.837 3.7944-1.295 4.8323"/>
 <path id="path3435" style="opacity:.05;stroke:#878787;stroke-linecap:round;stroke-width:1px;fill:none" d="m13.543 16.363 1.2942 4.8301"/>
 <path id="path3437" style="opacity:.05;stroke:#878787;stroke-linecap:round;stroke-width:1px;fill:none" d="m10.175 3.7944 1.295 4.8323"/>
</svg>
